X:1
T:Dearborn, 87.87 D
T:Dearborn, 87.87 D
T:W. Birtchnell, 1912
T:Public Domain Courtesy of the Cyber Hymnal™
C:W. Birtchnell, 1912
Z:Public Domain
Z:Courtesy of the Cyber Hymnal™
%%score ( 1 2 ) ( 3 4 )
L:1/8
Q:1/4=107
M:4/4
K:G
V:1 treble 
V:2 treble 
V:3 bass 
V:4 bass 
V:1
 [B,D]3 [B,E] [CG]2 [CF]2 | [B,D]3 [B,E] [CG]2 [CF]2 | [DG]2 [FA]2 [GB]2 (dc) | %3
 [CE]2 [CF]2 [B,G]4 | [B,D]3 [B,E] [CG]2 [CF]2 | D3 z E [^CG]2 [DF]2 | B3 z B [DA]2 D2 | %7
 (EG) (FE) D4 | [Fc]2 [DB][CA] [B,G]2 D2 | c2 ([DB][CA]) ([B,G][CE]) [B,D]2 | D2 (EF) [DG]2 (AB) | %11
 [Dc]2 [DB]2 [DA]4 | D3 z E [DG]2 [DF]2 | F3 z G [EB]2 [EA]2 | [EA]2 [Ge]2 [Gd]2 G2 | %15
 (Ac) (BA) G4 |] %16
V:2
 x8 | x8 | x6 E2 | x8 | x8 | D2 B,2 x5 | D2 D2 x D2 x2 | D2 ^C2 D4 | x6 D2 | (FE) x6 | %10
 D2 D2 x D2 x | x8 | D2 D2 x5 | D2 D2 x5 | x6 G2 | G2 F2 G4 |] %16
V:3
 [G,,G,]2 [G,,G,]2 [A,,D,]2 [A,,D,]2 | [B,,G,]2 [B,,G,]2 [A,,D,]2 [A,,D,]2 | %2
 [B,,G,]2 [A,,D]2 [G,,D]2 [A,,A,]2 | [C,A,]2 [D,A,]2 [G,,G,]4 | %4
 [G,,G,]2 [G,,G,]2 [A,,D,]2 [A,,D,]2 | [B,,G,]2 [G,,G,]2 [A,,E,]2 [D,F,]2 x | %6
 [B,,F,]2 [^G,,=F,]2 [A,,^F,]2 [B,,F,]2 x | [G,,B,]2 (A,G,) [D,F,]4 | %8
 [D,A,]2 [D,F,]2 [G,,G,]2 [B,,G,]2 | [A,,A,]2 [D,F,]2 G,2 [G,,G,]2 | %10
 F,2 ([B,,G,][A,,A,]) [G,,B,]2 ([E,G,][B,,G,]) | [A,,F,]2 [G,,G,]2 [D,F,]4 | %12
 [B,,G,]2 [G,,B,]2 [A,,D]2 [A,,A,]2 x | [B,,D]2 [B,,D]2 [C,C]2 [C,C]2 x | %14
 [C,A,]2 [^C,^A,]2 [D,B,]2 [E,B,]2 | [C,E]2 (DC) [G,B,]4 |] %16
V:4
 x8 | x8 | x8 | x8 | x8 | x9 | x9 | x2 A,,2 x4 | x8 | x4 (G,,C,) x2 | (D,C,) x6 | x8 | x9 | x9 | %14
 x8 | x2 D,2 x4 |] %16

